X:1
T:Title
%%score ( 1 2 ) { 3 | 4 }
L:1/8
Q:1/4=140
M:3/2
K:G
V:1 treble nm="Grand Piano, Unnamed-000"
V:2 treble 
V:3 treble nm="Choir Pad, Marlow"
V:4 bass 
V:1
 [DG]4 [GB]2 [GB]2 [DB]4 | [EG]4 [Fd]2 [Gd]2 [Fd]4 | z4 z4 c4 | [GB]4 [FA]8 | %4
w: By~John~Chetham,~Book~of~Psalmody,~1718 * * *||||
 [DG]4 [GB]2 [GB]2 [DB]4 | [EG]4 [Fd]2 [Gd]2 [Fd]4 | [Fd]4 [GB]2 G2 [EG]4 | [DF]4 [DG]8 |] %8
w: ||||
V:2
 x12 | x12 | [Fd]4 [GB]2 [DG]2 E2 F2 | x12 | x12 | x12 | x12 | x12 |] %8
V:3
 B,4 D2 D2 D4 | G,4[K:bass] A,2 B,2 A,4 | A,4 B,2[K:treble] D2 C4 | D4 D8 | B,4 D2 D2 D4 | %5
 G,4 A,2 B,2 A,4 | A,4 G,2 B,2 C4 | A,4 B,8 |] %8
V:4
 G,4 G,2 G,2 G,4 | E,4 D,2 G,2 D,4 | D,4 G,2 B,2 A,4 | G,4 D,8 | G,4 G,2 G,2 G,4 | %5
 E,4 D,2 G,2 D,4 | D,4 z2 E,2 C,4 | D,4 G,,8 |] %8

